svgs/savee.svg

<svg width="192" height="192" viewBox="0 0 192 192" fill="none" xmlns="http://www.w3.org/2000/svg">
<path d="M96.0682 170C66.1689 170 44 152.96 44 128.599H76.3702C76.3702 142.681 99.1844 140.097 99.1844 140.097C121.882 140.097 118.56 123.719 118.56 123.719C117.596 109.17 94.6197 109.853 94.6197 109.853H91.0988H87.5778C38.9882 109.853 44.5012 63.4006 44.5012 63.4006C45.5036 22 96.6795 22 96.6795 22C126.579 22.0003 148.748 39.0403 148.748 63.4006L116.378 63.4006C116.378 49.3188 93.5633 51.9033 93.5633 51.9033C70.8656 51.9033 74.1876 68.2814 74.1876 68.2814C75.1512 82.8304 97.6268 81.1399 97.6268 81.1399H104.643C153.233 81.1399 148.247 128.599 148.247 128.599C147.244 170 96.0682 170 96.0682 170Z" stroke="black" stroke-width="12" stroke-linecap="round" stroke-linejoin="round"/>
<path d="M87 110H99.5" stroke="black" stroke-width="12" stroke-linecap="round" stroke-linejoin="round"/>
</svg>

<svg width="192" height="192" viewBox="0 0 192 192" fill="none" xmlns="http://www.w3.org/2000/svg"><path d="M96.068 170C66.168 170 44 152.96 44 128.599h32.37c0 14.082 22.814 11.498 22.814 11.498 22.698 0 19.376-16.378 19.376-16.378-.964-14.549-23.94-13.866-23.94-13.866h-7.042c-48.59 0-43.077-46.452-43.077-46.452C45.504 22 96.68 22 96.68 22c29.899 0 52.068 17.04 52.068 41.4h-32.37c0-14.081-22.815-11.497-22.815-11.497-22.697 0-19.375 16.378-19.375 16.378.963 14.55 23.439 12.859 23.439 12.859h7.016c48.59 0 43.604 47.459 43.604 47.459C147.244 170 96.068 170 96.068 170ZM87 110h12.5" stroke="#000" stroke-width="12" stroke-linecap="round" stroke-linejoin="round"/></svg>
